build/img/icons/!.svg

<svg width="12" height="52" viewBox="0 0 12 52" fill="none" xmlns="http://www.w3.org/2000/svg">
    <path d="M.752.6h10.656l-1.8 33.696H2.48L.752.6zM6.08 51.504c-1.68 0-3.072-.528-4.176-1.584C.8 48.816.248 47.472.248 45.888s.552-2.904 1.656-3.96c1.104-1.056 2.496-1.584 4.176-1.584 1.632 0 2.976.528 4.032 1.584 1.104 1.056 1.656 2.376 1.656 3.96s-.552 2.928-1.656 4.032c-1.056 1.056-2.4 1.584-4.032 1.584z" fill="#EDF1F7"/>
</svg>

<svg width="12" height="52" viewBox="0 0 12 52" fill="none" xmlns="http://www.w3.org/2000/svg">
<path d="M0.752 0.599997H11.408L9.608 34.296H2.48L0.752 0.599997ZM6.08 51.504C4.4 51.504 3.008 50.976 1.904 49.92C0.8 48.816 0.248 47.472 0.248 45.888C0.248 44.304 0.8 42.984 1.904 41.928C3.008 40.872 4.4 40.344 6.08 40.344C7.712 40.344 9.056 40.872 10.112 41.928C11.216 42.984 11.768 44.304 11.768 45.888C11.768 47.472 11.216 48.816 10.112 49.92C9.056 50.976 7.712 51.504 6.08 51.504Z" fill="#EDF1F7"/>
</svg>
